X: 3
T: Rolling In The Ryegrass
R: reel
M: 4/4
L: 1/8
K: Dmaj
A2AF DFAF|G2BG DGBG|~A3F DFAF|GBAF EFDE|F2AF DFAF|G2BG DGBG|~A3F DFAF|GBAF EFD2||ABde f2df|g2eg fedB|ABde f2df|1 afdf e2dB:|2 afdf efdB||


Tune 87	Setting 12617

